X:1
T:Title
%%score { ( 1 3 ) | ( 2 4 ) }
L:1/8
M:6/8
K:C
V:1 treble nm="Grand Piano"
V:3 treble 
V:2 bass 
V:4 bass 
V:1
 z3 z2[Q:1/4=100] [EG] | [Ec]>[Ec][Ec] [Ec]2 [Ec] | B3 B2 E | A>AA B2 A | %4
[M:5/8] [CEG]-[CEG]- [CEG]3 |[M:1/8] [G,CE] |[M:3/4] [B,DF]>[_B,^CE] [=B,DF] [DFB]2 [B,FA] | %7
 [EG]>[_E^F] [=EG] [Ec]2 [GB] | A>^G A [^FB]2 [Fc] |[M:5/8] d-d- d3 |[M:1/8] G/G/ | %11
[M:3/4] [EG]>[DF] [EG] [Ec]2 [GB] | A>^G A d2 c | B>A B e2 d | [Ec]>[GB] [FA] [EG]2 [FG]/[FG]/ | %15
 [EG]>[_E^F] [=EG] .c3 |[M:7/8] A>^GA [^Fd]3 [Fc] |[M:3/4] BA G e2 d |[M:5/8] c-c- c3 |] %19
V:2
 z3 z2 [C,G,] | [C,G,]>[C,G,][C,G,] [C,G,]2 [C,G,] | [E,^G,E]3 [E,G,E]2 [E,G,D] | %3
 [F,A,C]>[F,A,C][F,CF] [F,DF]2 [F,CF] |[M:5/8] C,-C,- C,3 |[M:1/8] C, | %6
[M:3/4] G,,>G,, G,, G,,2 G,, | [C,C]>[C,C] [C,C] [C,G,]2 [E,C] | %8
 [F,CF]>[F,B,F] [F,CF] [D,D]2 [D,C] |[M:5/8][K:treble] [G,B,F]-[G,B,F]- [G,B,F]3 | %10
[M:1/8] [G,B,F]/[G,B,F]/ |[M:3/4][K:bass] [C,C]>[C,C] [C,C] [C,G,]2 [E,C] | %12
 [F,CF]>[F,B,F] [F,CF] [F,A,F]2 [F,A,F] | [G,F]>[G,F] [G,F] [G,B,G]2 [G,F] | %14
 [C,G,]>[C,A,] [C,B,] [C,C]2 [G,B,]/[G,B,]/ | [C,C]>[C,C] [C,C] .[A,CE]3 | %16
[M:7/8] [F,CF]>[F,B,F][F,CF] [D,D]3 [D,D] |[M:3/4][K:treble] [G,DG][G,C^F] [G,B,] [G,B,G]2 [G,=F] | %18
[M:5/8][K:bass] G,2 A, G,2 |] %19
V:3
 x6 | x6 | x6 | x6 |[M:5/8] x5 |[M:1/8] x |[M:3/4] x6 | x6 | x6 |[M:5/8] x5 |[M:1/8] x | %11
[M:3/4] x6 | x6 | x6 | x6 | x6 |[M:7/8] x7 |[M:3/4] x6 |[M:5/8] E2 F E2 |] %19
V:4
 x6 | x6 | x6 | x6 |[M:5/8] x5 |[M:1/8] x |[M:3/4] x6 | x6 | x6 |[M:5/8][K:treble] x5 |[M:1/8] x | %11
[M:3/4][K:bass] x6 | x6 | x6 | x6 | x6 |[M:7/8] x7 |[M:3/4][K:treble] x6 | %18
[M:5/8][K:bass] C,-C,- C,3 |] %19

